icons/core/timer-slash.svg

<svg width="32" height="32" viewBox="0 0 32 32" fill="none" xmlns="http://www.w3.org/2000/svg">
<path fill-rule="evenodd" clip-rule="evenodd" d="M20.9999 3H10.9999V1H20.9999V3ZM25.9999 17C25.9999 18.2272 25.7789 19.4027 25.3744 20.4889L26.9035 22.018C27.6073 20.4913 27.9999 18.7915 27.9999 17C27.9999 13.7916 26.7408 10.8773 24.6897 8.72429L28.7069 4.7071L27.2927 3.29288L23.1922 7.39336C21.188 5.89039 18.6979 5 15.9999 5C14.2084 5 12.5086 5.39257 10.9819 6.09638L12.511 7.62548C13.5972 7.22104 14.7728 7 15.9999 7C21.5228 7 25.9999 11.4772 25.9999 17ZM7.31011 8.72425L1.79297 3.2071L3.20718 1.79289L30.2072 28.7929L28.793 30.2071L24.2757 25.6898C22.1226 27.7409 19.2083 29 15.9999 29C9.37249 29 3.99991 23.6274 3.99991 17C3.99991 13.7916 5.25904 10.8773 7.31011 8.72425ZM8.72483 10.139C7.03545 11.9296 5.99991 14.3439 5.99991 17C5.99991 22.5228 10.4771 27 15.9999 27C18.656 27 21.0703 25.9645 22.8609 24.2751L8.72483 10.139Z" fill="black"/>
</svg>

<svg width="32" height="32" viewBox="0 0 32 32" xmlns="http://www.w3.org/2000/svg">
    <path fill-rule="evenodd" d="M21 3H11V1h10v2zm5 14a9.977 9.977 0 01-.626 3.489l1.53 1.529A11.955 11.955 0 0028 17c0-3.208-1.26-6.123-3.31-8.276l4.017-4.017-1.414-1.414-4.1 4.1A11.947 11.947 0 0016 5c-1.792 0-3.491.393-5.018 1.096l1.529 1.53A9.979 9.979 0 0116 7c5.523 0 10 4.477 10 10zM7.31 8.724L1.793 3.207l1.414-1.414 27 27-1.414 1.414-4.517-4.517A11.96 11.96 0 0116 29C9.372 29 4 23.627 4 17a11.96 11.96 0 013.31-8.276zm1.415 1.415A9.965 9.965 0 006 17c0 5.523 4.477 10 10 10a9.965 9.965 0 006.86-2.725L8.726 10.14z"/>
</svg>
